X: 32
T:Glannau'r Wysg
T:The Banks of the Usk
M:2/4
L:1/8
Q:220
S:Band y Brodyr
R:Polka
A:Wales
Z:brian_martin12345@yahoo.com
K:G
d/B/|GG G/A/B/c/|dG Ge/d/|cA A/B/c/d/|eA Ad/c/|
BG G/A/B/c/|dG GA/B/|1c/B/A/B/ c/B/A/G/|FD D:||2c/B/A/G/ F/D/E/F/|GG G||
z|F/G/A/G/ FF|G/A/B/A/ GG|A/B/c/B/ A/B/c/B/|B/c/d/e/ dd|
e/d/c/B/ AA|d/c/B/A/ GG|c/B/A/G/ F/D/E/F/|GB G:||
